X: 2
M:4/4
L:1/8
K:G
d>c|:(3BdB GB (3AcA FA|Gdgf edBG|F>GA>B cdef|gdBG A2 dc|
(3BdB GB (3AcA FA|G>Bgf edBG|F>GAB c>def|g2 f2 g2 z2:|
|dgfg d>gB>g|d>gf>g b>agf|eAfA eAfA|sedcBs sdcBAs|
|d>gfg d>gB>g|d>gfg b>agf|eAfA eAfA|e>dcB d>cBA|

